X:314
T:Old Pigeon on the Gate, The
R:reel
H:Also played in A, #400
Z:id:hn-reel-314
M:C|
K:G
G2BG dGBG|F2AF dFAF|G2 (3BAG dGBG|1 cBAG FADF:|2 cBAG FADA||
Bd~d2 BGGB|ABcd ed~d2|Bdgd BGAB|cBAG FADA|
Bdgd BG~G2|ABcd ed~d2|g2gd BGAB|cBAG FADF||

